assets/images/kenya.svg

<svg enable-background="new 0 0 100 100" viewBox="0 0 100 100" xmlns="http://www.w3.org/2000/svg"><path d="m16.385 27.705v44.59h67.23v-44.59zm64.23 3v10.863h-22.817l3.432-4.854-2.45-1.732-3.956 5.596c-1.771-2.738-3.671-4.485-3.819-4.619l-1.005-.905-1.004.905c-.148.134-2.048 1.881-3.819 4.619l-3.956-5.595-2.449 1.732 3.432 4.854h-22.819v-10.864zm-37.488 24.727h-23.742v-10.864h23.742c-.63 1.663-1.048 3.495-1.048 5.432s.418 3.769 1.048 5.432zm1.952-5.432c0-4.729 3.233-8.917 4.923-10.783 1.691 1.861 4.92 6.036 4.92 10.783 0 4.728-3.233 8.916-4.924 10.783-1.691-1.861-4.919-6.036-4.919-10.783zm11.794-5.432h23.742v10.863h-23.741c.63-1.663 1.048-3.495 1.048-5.432s-.418-3.768-1.049-5.431zm-37.488 24.727v-10.863h22.818l-3.432 4.854 2.449 1.731 3.956-5.596c1.771 2.738 3.671 4.485 3.819 4.619l1.005.906 1.004-.905c.148-.134 2.048-1.881 3.819-4.619l3.957 5.596 2.449-1.732-3.432-4.854h22.817v10.863z"/></svg>

<svg xmlns="http://www.w3.org/2000/svg" xmlns:xlink="http://www.w3.org/1999/xlink" version="1.1" x="0px" y="0px" viewBox="0 0 100 100" enable-background="new 0 0 100 100" xml:space="preserve"><path d="M16.385,27.705v44.59h67.23v-44.59H16.385z M80.615,30.705v10.863H57.798l3.432-4.854l-2.45-1.732l-3.956,5.596  c-1.771-2.738-3.671-4.485-3.819-4.619L50,35.054l-1.004,0.905c-0.148,0.134-2.048,1.881-3.819,4.619l-3.956-5.595l-2.449,1.732  l3.432,4.854H19.385V30.705H80.615z M43.127,55.432H19.385V44.568h23.742c-0.63,1.663-1.048,3.495-1.048,5.432  S42.497,53.769,43.127,55.432z M45.079,50c0-4.729,3.233-8.917,4.923-10.783c1.691,1.861,4.92,6.036,4.92,10.783  c0,4.728-3.233,8.916-4.924,10.783C48.307,58.922,45.079,54.747,45.079,50z M56.873,44.568h23.742v10.863H56.874  c0.63-1.663,1.048-3.495,1.048-5.432S57.504,46.231,56.873,44.568z M19.385,69.295V58.432h22.818l-3.432,4.854l2.449,1.731  l3.956-5.596c1.771,2.738,3.671,4.485,3.819,4.619L50,64.946l1.004-0.905c0.148-0.134,2.048-1.881,3.819-4.619l3.957,5.596  l2.449-1.732l-3.432-4.854h22.817v10.863H19.385z"></path></svg>
